dist/img/svg/facebook-icon.svg

<svg width="10" height="20" viewBox="0 0 10 20" fill="none" xmlns="http://www.w3.org/2000/svg">
<path fill-rule="evenodd" clip-rule="evenodd" d="M6.65382 19.1726H2.56282V9.67859H0.517822V6.40559H2.56282V4.44159C2.56282 1.77259 3.71782 0.183594 6.99582 0.183594H9.72582V3.45659H8.02082C6.74282 3.45659 6.65882 3.91459 6.65882 4.76859L6.65382 6.40559H9.74582L9.38382 9.67859H6.65382V19.1726Z" fill="white"/>
</svg>

<svg width="10" height="20" fill="none" xmlns="http://www.w3.org/2000/svg"><path fill-rule="evenodd" clip-rule="evenodd" d="M6.654 19.173H2.563V9.679H.518V6.406h2.045V4.442c0-2.67 1.155-4.258 4.433-4.258h2.73v3.273H8.02c-1.278 0-1.362.458-1.362 1.312l-.005 1.637h3.092l-.362 3.273h-2.73v9.494z" fill="#fff"/></svg>
